X: 22229
T: La Disillusa
R: mazurka
M: 3/4
K: Eminor
E EG|"Em" B3A "Am" cA|"Em"B3B AG|"D" F3F GA|"Em" GF ED EG|
"Em" B3A"Am" cA|"Em" B3B AG|"D"F2 FG AG|"B7" F3E EG||
"Em" B3A "Am" cA|"Em"B3B AG|"B7" F2 FA GF|"C" GF ED EG|
"Fmaj7#11" B3A"Fmai7" cA|"Fmaj7#11"B3B"Fmai7" AG|"B"FE FA GF|"Em" E3E FG||
"Am" A2 Ac BA|"Em" BG EE FG|"D" AB/A/ GA dc|"G" B3G A^A|
"B7" B2 Bc BA|"Em" GB EE FG|"F#"F2 FE ^DE|"B7"F3F G^G|
"Am" A2 Ac BA|"Em" BG EE FG|"D" AB/A/ GA dc|"G" B3B AG|
"F" A2 Ac BA|"Em" GB EE FG|"B7" FE FA GF|"Em" E4z2||

